; generated by PrusaSlicer 2.3.0+win64 on 2021-02-28 at 02:19:27 UTC

; 

; external perimeters extrusion width = 0.45mm
; perimeters extrusion width = 0.45mm
; infill extrusion width = 0.45mm
; solid infill extrusion width = 0.45mm
; top infill extrusion width = 0.45mm
; first layer extrusion width = 0.42mm

M201 X500 Y500 Z100 E5000 ; sets maximum accelerations, mm/sec^2
M203 X500 Y500 Z10 E60 ; sets maximum feedrates, mm/sec
M204 P500 R1000 T500 ; sets acceleration (P, T) and retract acceleration (R), mm/sec^2
M205 X8.00 Y8.00 Z0.40 E5.00 ; sets the jerk limits, mm/sec
M205 S0 T0 ; sets the minimum extruding and travel feed rate, mm/sec
M107
;TYPE:Custom
G90 ; use absolute coordinates
M83 ; extruder relative mode
M104 S240 ; set extruder temp
M140 S70 ; set bed temp
M190 S70 ; wait for bed temp
M109 S240 ; wait for extruder temp
G28 ; home all
G1 Z2 F240
G1 X2 Y10 F3000
G1 Z0.28 F240
G92 E0
G1 Y190 E15 F1500 ; intro line
G1 X2.3 F5000
G92 E0
G1 Y10 E15 F1200 ; intro line
G92 E0
G21 ; set units to millimeters
G90 ; use absolute coordinates
M83 ; use relative distances for extrusion
; Filament gcode
;LAYER_CHANGE
;Z:0.2
;HEIGHT:0.2
;BEFORE_LAYER_CHANGE
G92 E0
;0.2


G1 E-5.00000 F3600.000
G1 Z0.200 F9000.000
;AFTER_LAYER_CHANGE
;0.2
G1 X91.255 Y91.794
G1 E5.00000 F2400.000
;TYPE:Skirt
;WIDTH:0.42
G1 F1200.000
G1 X92.018 Y91.268 E0.02907
G1 X92.925 Y91.073 E0.02907
G1 X138.044 Y91.073 E1.41468
G1 X138.932 Y91.247 E0.02837
G1 X139.693 Y91.742 E0.02849
G1 X140.212 Y92.484 E0.02837
G1 X140.416 Y93.365 E0.02837
G1 X140.417 Y137.584 E1.38646
G1 X140.236 Y138.459 E0.02802
G1 X139.745 Y139.206 E0.02802
G1 X138.964 Y139.740 E0.02966
G1 X138.040 Y139.927 E0.02957
G1 X92.926 Y139.927 E1.41453
G1 X92.051 Y139.746 E0.02802
G1 X91.304 Y139.255 E0.02802
G1 X90.772 Y138.478 E0.02954
G1 X90.583 Y137.555 E0.02954
G1 X90.583 Y93.416 E1.38395
G1 X90.764 Y92.541 E0.02802
G1 X91.222 Y91.844 E0.02614
G1 E-3.50000 F3600.000
;WIPE_START
G1 F7200.000
G1 X92.018 Y91.268 E-0.46697
G1 X92.925 Y91.073 E-0.44043
G1 X94.014 Y91.073 E-0.51760
;WIPE_END
G1 E-0.07500 F3600.000
G1 X113.001 Y113.087 F9000.000
G1 E5.00000 F2400.000
;TYPE:Perimeter
G1 F1200.000
G1 X113.442 Y112.699 E0.01841
G1 X113.942 Y112.391 E0.01841
G1 X114.486 Y112.172 E0.01841
G1 X115.060 Y112.048 E0.01841
G1 X115.632 Y112.024 E0.01793
G1 X116.228 Y112.098 E0.01884
G1 X116.791 Y112.270 E0.01845
G1 X117.315 Y112.534 E0.01841
G1 X117.787 Y112.883 E0.01841
G1 X118.193 Y113.307 E0.01841
G1 X118.522 Y113.794 E0.01841
G1 X118.757 Y114.315 E0.01793
G1 X118.912 Y114.895 E0.01884
G1 X118.961 Y115.482 E0.01845
G1 X118.912 Y116.067 E0.01841
G1 X118.764 Y116.635 E0.01841
G1 X118.522 Y117.170 E0.01841
G1 X118.195 Y117.653 E0.01830
G1 X117.804 Y118.064 E0.01778
G1 X117.307 Y118.434 E0.01944
G1 X116.780 Y118.697 E0.01845
G1 X116.219 Y118.867 E0.01839
G1 X115.637 Y118.940 E0.01839
G1 X115.051 Y118.914 E0.01839
G1 X114.478 Y118.789 E0.01839
G1 X113.935 Y118.569 E0.01839
G1 X113.437 Y118.261 E0.01837
G1 X113.023 Y117.896 E0.01729
G1 X112.633 Y117.421 E0.01925
G1 X112.346 Y116.908 E0.01846
G1 X112.150 Y116.354 E0.01841
G1 X112.051 Y115.775 E0.01841
G1 X112.051 Y115.188 E0.01841
G1 X112.150 Y114.610 E0.01841
G1 X112.346 Y114.056 E0.01841
G1 X112.632 Y113.543 E0.01841
G1 X112.963 Y113.133 E0.01653
G1 X113.257 Y113.370 F9000.000
;TYPE:External perimeter
G1 F1200.000
G1 X113.667 Y113.003 E0.01726
G1 X114.112 Y112.729 E0.01640
G1 X114.597 Y112.534 E0.01640
G1 X115.108 Y112.424 E0.01640
G1 X115.617 Y112.402 E0.01595
G1 X116.149 Y112.468 E0.01682
G1 X116.650 Y112.621 E0.01641
G1 X117.116 Y112.857 E0.01640
G1 X117.537 Y113.167 E0.01640
G1 X117.899 Y113.545 E0.01640
G1 X118.191 Y113.978 E0.01640
G1 X118.401 Y114.442 E0.01595
G1 X118.539 Y114.960 E0.01682
G1 X118.583 Y115.482 E0.01641
G1 X118.539 Y116.003 E0.01640
G1 X118.407 Y116.509 E0.01640
G1 X118.191 Y116.985 E0.01640
G1 X117.900 Y117.416 E0.01630
G1 X117.553 Y117.780 E0.01579
G1 X117.108 Y118.112 E0.01739
G1 X116.640 Y118.346 E0.01640
G1 X116.140 Y118.497 E0.01638
G1 X115.622 Y118.562 E0.01638
G1 X115.100 Y118.538 E0.01638
G1 X114.590 Y118.427 E0.01638
G1 X114.106 Y118.231 E0.01638
G1 X113.662 Y117.957 E0.01637
G1 X113.295 Y117.633 E0.01534
G1 X112.946 Y117.208 E0.01724
G1 X112.691 Y116.752 E0.01640
G1 X112.517 Y116.259 E0.01640
G1 X112.428 Y115.743 E0.01640
G1 X112.428 Y115.220 E0.01640
G1 X112.517 Y114.705 E0.01640
G1 X112.691 Y114.212 E0.01640
G1 X112.946 Y113.755 E0.01640
G1 X113.219 Y113.417 E0.01364
G1 X113.143 Y112.987 F9000.000
G1 E-3.50000 F3600.000
;WIPE_START
G1 F7200.000
G1 X113.667 Y113.003 E-0.28962
G1 X114.112 Y112.729 E-0.24838
G1 X114.597 Y112.534 E-0.24838
G1 X115.108 Y112.424 E-0.24838
G1 X115.617 Y112.402 E-0.24158
G1 X115.927 Y112.440 E-0.14866
;WIPE_END
G1 E-0.07500 F3600.000
G1 X93.647 Y94.137 F9000.000
G1 E5.00000 F2400.000
;TYPE:Perimeter
G1 F1200.000
G1 X137.353 Y94.137 E1.37037
G1 X137.353 Y136.863 E1.33964
G1 X93.647 Y136.863 E1.37037
G1 X93.647 Y94.197 E1.33776
G1 X93.270 Y93.760 F9000.000
;TYPE:External perimeter
G1 F1200.000
G1 X137.730 Y93.760 E1.39401
G1 X137.730 Y137.240 E1.36328
G1 X93.270 Y137.240 E1.39401
G1 X93.270 Y93.820 E1.36140
G1 X93.657 Y93.862 F9000.000
G1 E-3.50000 F3600.000
;WIPE_START
G1 F7200.000
G1 X96.270 Y93.816 E-1.42500
;WIPE_END
G1 E-0.07500 F3600.000
G1 X137.240 Y95.014 F9000.000
G1 E5.00000 F2400.000
;TYPE:Solid infill
;WIDTH:0.420869
G1 F1200.000
G1 X136.645 Y94.420 E0.02642
G1 X136.111 Y94.420 E0.01680
G1 X137.070 Y95.379 E0.04263
G1 X137.070 Y95.914 E0.01680
G1 X135.576 Y94.420 E0.06639
G1 X135.042 Y94.420 E0.01680
G1 X137.070 Y96.448 E0.09014
G1 X137.070 Y96.983 E0.01680
G1 X134.507 Y94.420 E0.11390
G1 X133.973 Y94.420 E0.01680
G1 X137.070 Y97.517 E0.13765
G1 X137.070 Y98.052 E0.01680
G1 X133.438 Y94.420 E0.16141
G1 X132.904 Y94.420 E0.01680
G1 X137.070 Y98.586 E0.18516
G1 X137.070 Y99.121 E0.01680
G1 X132.369 Y94.420 E0.20892
G1 X131.835 Y94.420 E0.01680
G1 X137.070 Y99.655 E0.23267
G1 X137.070 Y100.190 E0.01680
G1 X131.300 Y94.420 E0.25643
G1 X130.766 Y94.420 E0.01680
G1 X137.070 Y100.724 E0.28019
G1 X137.070 Y101.259 E0.01680
G1 X130.231 Y94.420 E0.30394
G1 X129.697 Y94.420 E0.01680
G1 X137.070 Y101.793 E0.32770
G1 X137.070 Y102.328 E0.01680
G1 X129.162 Y94.420 E0.35145
G1 X128.628 Y94.420 E0.01680
G1 X137.070 Y102.862 E0.37521
G1 X137.070 Y103.397 E0.01680
G1 X128.093 Y94.420 E0.39896
G1 X127.559 Y94.420 E0.01680
G1 X137.070 Y103.931 E0.42272
G1 X137.070 Y104.466 E0.01680
G1 X127.024 Y94.420 E0.44647
G1 X126.490 Y94.420 E0.01680
G1 X137.070 Y105.000 E0.47023
G1 X137.070 Y105.535 E0.01680
G1 X125.955 Y94.420 E0.49398
G1 X125.421 Y94.420 E0.01680
G1 X137.070 Y106.069 E0.51774
G1 X137.070 Y106.604 E0.01680
G1 X124.886 Y94.420 E0.54149
G1 X124.352 Y94.420 E0.01680
G1 X137.070 Y107.138 E0.56525
G1 X137.070 Y107.673 E0.01680
G1 X123.817 Y94.420 E0.58900
G1 X123.283 Y94.420 E0.01680
G1 X137.070 Y108.207 E0.61276
G1 X137.070 Y108.742 E0.01680
G1 X122.748 Y94.420 E0.63651
G1 X122.214 Y94.420 E0.01680
G1 X137.070 Y109.276 E0.66027
G1 X137.070 Y109.811 E0.01680
G1 X121.679 Y94.420 E0.68403
G1 X121.145 Y94.420 E0.01680
G1 X137.070 Y110.345 E0.70778
G1 X137.070 Y110.880 E0.01680
G1 X120.610 Y94.420 E0.73154
G1 X120.076 Y94.420 E0.01680
G1 X137.070 Y111.414 E0.75529
G1 X137.070 Y111.949 E0.01680
G1 X119.541 Y94.420 E0.77905
G1 X119.007 Y94.420 E0.01680
G1 X137.070 Y112.483 E0.80280
G1 X137.070 Y113.018 E0.01680
G1 X118.472 Y94.420 E0.82656
G1 X117.938 Y94.420 E0.01680
G1 X137.070 Y113.552 E0.85031
G1 X137.070 Y114.087 E0.01680
G1 X117.403 Y94.420 E0.87407
G1 X116.869 Y94.420 E0.01680
G1 X137.070 Y114.621 E0.89782
G1 X137.070 Y115.156 E0.01680
G1 X116.334 Y94.420 E0.92158
G1 X115.800 Y94.420 E0.01680
G1 X137.070 Y115.690 E0.94533
G1 X137.070 Y116.225 E0.01680
G1 X115.265 Y94.420 E0.96909
G1 X114.731 Y94.420 E0.01680
G1 X137.070 Y116.759 E0.99284
G1 X137.070 Y117.294 E0.01680
G1 X114.196 Y94.420 E1.01660
G1 X113.662 Y94.420 E0.01680
G1 X137.070 Y117.828 E1.04035
G1 X137.070 Y118.363 E0.01680
G1 X113.127 Y94.420 E1.06411
G1 X112.593 Y94.420 E0.01680
G1 X137.070 Y118.897 E1.08787
G1 X137.070 Y119.432 E0.01680
G1 X112.058 Y94.420 E1.11162
G1 X111.524 Y94.420 E0.01680
G1 X137.070 Y119.966 E1.13538
G1 X137.070 Y120.501 E0.01680
G1 X110.989 Y94.420 E1.15913
G1 X110.455 Y94.420 E0.01680
G1 X137.070 Y121.035 E1.18289
G1 X137.070 Y121.570 E0.01680
G1 X109.920 Y94.420 E1.20664
G1 X109.386 Y94.420 E0.01680
G1 X137.070 Y122.104 E1.23040
G1 X137.070 Y122.639 E0.01680
G1 X108.851 Y94.420 E1.25415
G1 X108.317 Y94.420 E0.01680
G1 X137.070 Y123.173 E1.27791
G1 X137.070 Y123.708 E0.01680
G1 X107.782 Y94.420 E1.30166
G1 X107.248 Y94.420 E0.01680
G1 X137.070 Y124.242 E1.32542
G1 X137.070 Y124.777 E0.01680
G1 X106.713 Y94.420 E1.34917
G1 X106.179 Y94.420 E0.01680
G1 X137.070 Y125.311 E1.37293
G1 X137.070 Y125.846 E0.01680
G1 X105.644 Y94.420 E1.39668
G1 X105.110 Y94.420 E0.01680
G1 X137.070 Y126.380 E1.42044
G1 X137.070 Y126.915 E0.01680
G1 X104.575 Y94.420 E1.44420
G1 X104.041 Y94.420 E0.01680
G1 X137.070 Y127.449 E1.46795
G1 X137.070 Y127.984 E0.01680
G1 X103.506 Y94.420 E1.49171
G1 X102.972 Y94.420 E0.01680
G1 X137.070 Y128.518 E1.51546
G1 X137.070 Y129.053 E0.01680
G1 X102.437 Y94.420 E1.53922
G1 X101.903 Y94.420 E0.01680
G1 X137.070 Y129.587 E1.56297
G1 X137.070 Y130.122 E0.01680
G1 X101.368 Y94.420 E1.58673
G1 X100.834 Y94.420 E0.01680
G1 X137.070 Y130.656 E1.61048
G1 X137.070 Y131.191 E0.01680
G1 X100.299 Y94.420 E1.63424
G1 X99.765 Y94.420 E0.01680
G1 X137.070 Y131.725 E1.65799
G1 X137.070 Y132.260 E0.01680
G1 X119.020 Y114.210 E0.80220
G1 X118.770 Y113.655 E0.01913
G1 X118.414 Y113.129 E0.01996
G1 X117.974 Y112.670 E0.01996
G1 X117.464 Y112.293 E0.01996
G1 X116.896 Y112.007 E0.01996
G1 X116.782 Y111.972 E0.00376
G1 X99.230 Y94.420 E0.78007
G1 X98.696 Y94.420 E0.01680
G1 X116.069 Y111.793 E0.77213
G1 X115.643 Y111.741 E0.01349
G1 X115.489 Y111.747 E0.00486
G1 X98.161 Y94.420 E0.77009
G1 X97.627 Y94.420 E0.01680
G1 X114.983 Y111.776 E0.77137
G1 X114.543 Y111.871 E0.01414
G1 X97.092 Y94.420 E0.77558
G1 X96.558 Y94.420 E0.01680
G1 X114.143 Y112.005 E0.78156
G1 X113.769 Y112.165 E0.01280
G1 X96.023 Y94.420 E0.78868
G1 X95.489 Y94.420 E0.01680
G1 X113.438 Y112.369 E0.79773
G1 X113.273 Y112.471 E0.00609
G1 X113.130 Y112.596 E0.00597
G1 X94.954 Y94.420 E0.80782
G1 X94.420 Y94.420 E0.01680
G1 X112.846 Y112.846 E0.81894
G1 X112.599 Y113.134 E0.01191
G1 X93.930 Y94.464 E0.82975
G1 X93.930 Y94.999 E0.01680
G1 X112.368 Y113.437 E0.81945
G1 X112.176 Y113.780 E0.01234
G1 X93.930 Y95.533 E0.81094
G1 X93.930 Y96.068 E0.01680
G1 X112.013 Y114.151 E0.80366
G1 X111.874 Y114.547 E0.01319
G1 X93.930 Y96.602 E0.79751
G1 X93.930 Y97.137 E0.01680
G1 X111.796 Y115.003 E0.79404
G1 X111.768 Y115.164 E0.00514
G1 X111.768 Y115.510 E0.01086
G1 X93.930 Y97.671 E0.79281
G1 X93.930 Y98.206 E0.01680
G1 X112.027 Y116.303 E0.80429
G1 E-3.50000 F3600.000
;WIPE_START
G1 F7200.000
G1 X109.905 Y114.181 E-1.42500
;WIPE_END
G1 E-0.07500 F3600.000
G1 X118.977 Y114.701 F9000.000
G1 E5.00000 F2400.000
G1 F1200.000
G1 X137.070 Y132.794 E0.80413
G1 X137.070 Y133.329 E0.01680
G1 X119.244 Y115.502 E0.79228
G1 X119.202 Y115.995 E0.01554
G1 X137.070 Y133.863 E0.79415
G1 X137.070 Y134.398 E0.01680
G1 X119.108 Y116.435 E0.79831
G1 X119.031 Y116.729 E0.00955
G1 X118.980 Y116.842 E0.00389
G1 X137.070 Y134.932 E0.80398
G1 X137.070 Y135.467 E0.01680
G1 X118.814 Y117.210 E0.81138
G1 X118.770 Y117.308 E0.00338
G1 X118.611 Y117.542 E0.00888
G1 X137.070 Y136.001 E0.82038
G1 X137.070 Y136.536 E0.01680
G1 X118.392 Y117.857 E0.83015
G1 X118.131 Y118.131 E0.01188
G1 X136.580 Y136.580 E0.81997
G1 X136.046 Y136.580 E0.01680
G1 X117.848 Y118.383 E0.80876
G1 X117.542 Y118.611 E0.01200
G1 X135.511 Y136.580 E0.79861
G1 X134.977 Y136.580 E0.01680
G1 X117.200 Y118.804 E0.79006
G1 X116.837 Y118.976 E0.01261
G1 X134.442 Y136.580 E0.78242
G1 X133.908 Y136.580 E0.01680
G1 X116.427 Y119.100 E0.77690
G1 X116.278 Y119.145 E0.00490
G1 X115.976 Y119.183 E0.00957
G1 X133.373 Y136.580 E0.77321
G1 X132.839 Y136.580 E0.01680
G1 X115.474 Y119.216 E0.77173
G1 X115.014 Y119.195 E0.01447
G1 X114.892 Y119.168 E0.00392
G1 X132.304 Y136.580 E0.77384
G1 X131.770 Y136.580 E0.01680
G1 X114.151 Y118.961 E0.78305
G1 X113.806 Y118.822 E0.01167
G1 X113.268 Y118.489 E0.01991
G1 X112.818 Y118.093 E0.01880
G1 X112.398 Y117.581 E0.02081
G1 X112.087 Y117.024 E0.02005
G1 X112.018 Y116.829 E0.00653
G1 X93.930 Y98.740 E0.80391
G1 X93.930 Y99.275 E0.01680
G1 X131.235 Y136.580 E1.65799
G1 X130.701 Y136.580 E0.01680
G1 X93.930 Y99.809 E1.63423
G1 X93.930 Y100.344 E0.01680
G1 X130.166 Y136.580 E1.61048
G1 X129.632 Y136.580 E0.01680
G1 X93.930 Y100.878 E1.58672
G1 X93.930 Y101.413 E0.01680
G1 X129.097 Y136.580 E1.56297
G1 X128.563 Y136.580 E0.01680
G1 X93.930 Y101.947 E1.53921
G1 X93.930 Y102.482 E0.01680
G1 X128.028 Y136.580 E1.51546
G1 X127.494 Y136.580 E0.01680
G1 X93.930 Y103.016 E1.49170
G1 X93.930 Y103.551 E0.01680
G1 X126.959 Y136.580 E1.46795
G1 X126.425 Y136.580 E0.01680
G1 X93.930 Y104.085 E1.44419
G1 X93.930 Y104.620 E0.01680
G1 X125.890 Y136.580 E1.42044
G1 X125.356 Y136.580 E0.01680
G1 X93.930 Y105.154 E1.39668
G1 X93.930 Y105.689 E0.01680
G1 X124.821 Y136.580 E1.37293
G1 X124.287 Y136.580 E0.01680
G1 X93.930 Y106.223 E1.34917
G1 X93.930 Y106.758 E0.01680
G1 X123.752 Y136.580 E1.32541
G1 X123.218 Y136.580 E0.01680
G1 X93.930 Y107.292 E1.30166
G1 X93.930 Y107.827 E0.01680
G1 X122.683 Y136.580 E1.27790
G1 X122.149 Y136.580 E0.01680
G1 X93.930 Y108.361 E1.25415
G1 X93.930 Y108.896 E0.01680
G1 X121.614 Y136.580 E1.23039
G1 X121.080 Y136.580 E0.01680
G1 X93.930 Y109.430 E1.20664
G1 X93.930 Y109.965 E0.01680
G1 X120.545 Y136.580 E1.18288
G1 X120.011 Y136.580 E0.01680
G1 X93.930 Y110.499 E1.15913
G1 X93.930 Y111.034 E0.01680
G1 X119.476 Y136.580 E1.13537
G1 X118.942 Y136.580 E0.01680
G1 X93.930 Y111.568 E1.11162
G1 X93.930 Y112.103 E0.01680
G1 X118.407 Y136.580 E1.08786
G1 X117.873 Y136.580 E0.01680
G1 X93.930 Y112.637 E1.06411
G1 X93.930 Y113.172 E0.01680
G1 X117.338 Y136.580 E1.04035
G1 X116.804 Y136.580 E0.01680
G1 X93.930 Y113.706 E1.01660
G1 X93.930 Y114.241 E0.01680
G1 X116.269 Y136.580 E0.99284
G1 X115.735 Y136.580 E0.01680
G1 X93.930 Y114.775 E0.96909
G1 X93.930 Y115.310 E0.01680
G1 X115.200 Y136.580 E0.94533
G1 X114.666 Y136.580 E0.01680
G1 X93.930 Y115.844 E0.92157
G1 X93.930 Y116.379 E0.01680
G1 X114.131 Y136.580 E0.89782
G1 X113.597 Y136.580 E0.01680
G1 X93.930 Y116.913 E0.87406
G1 X93.930 Y117.448 E0.01680
G1 X113.062 Y136.580 E0.85031
G1 X112.528 Y136.580 E0.01680
G1 X93.930 Y117.982 E0.82655
G1 X93.930 Y118.517 E0.01680
G1 X111.993 Y136.580 E0.80280
G1 X111.459 Y136.580 E0.01680
G1 X93.930 Y119.051 E0.77904
G1 X93.930 Y119.586 E0.01680
G1 X110.924 Y136.580 E0.75529
G1 X110.390 Y136.580 E0.01680
G1 X93.930 Y120.120 E0.73153
G1 X93.930 Y120.655 E0.01680
G1 X109.855 Y136.580 E0.70778
G1 X109.321 Y136.580 E0.01680
G1 X93.930 Y121.189 E0.68402
G1 X93.930 Y121.724 E0.01680
G1 X108.786 Y136.580 E0.66027
G1 X108.252 Y136.580 E0.01680
G1 X93.930 Y122.258 E0.63651
G1 X93.930 Y122.793 E0.01680
G1 X107.717 Y136.580 E0.61276
G1 X107.183 Y136.580 E0.01680
G1 X93.930 Y123.327 E0.58900
G1 X93.930 Y123.862 E0.01680
G1 X106.648 Y136.580 E0.56525
G1 X106.114 Y136.580 E0.01680
G1 X93.930 Y124.396 E0.54149
G1 X93.930 Y124.931 E0.01680
G1 X105.579 Y136.580 E0.51773
G1 X105.045 Y136.580 E0.01680
G1 X93.930 Y125.465 E0.49398
G1 X93.930 Y126.000 E0.01680
G1 X104.510 Y136.580 E0.47022
G1 X103.976 Y136.580 E0.01680
G1 X93.930 Y126.534 E0.44647
G1 X93.930 Y127.069 E0.01680
G1 X103.441 Y136.580 E0.42271
G1 X102.907 Y136.580 E0.01680
G1 X93.930 Y127.603 E0.39896
G1 X93.930 Y128.138 E0.01680
G1 X102.372 Y136.580 E0.37520
G1 X101.838 Y136.580 E0.01680
G1 X93.930 Y128.672 E0.35145
G1 X93.930 Y129.207 E0.01680
G1 X101.303 Y136.580 E0.32769
G1 X100.769 Y136.580 E0.01680
G1 X93.930 Y129.741 E0.30394
G1 X93.930 Y130.276 E0.01680
G1 X100.234 Y136.580 E0.28018
G1 X99.700 Y136.580 E0.01680
G1 X93.930 Y130.810 E0.25643
G1 X93.930 Y131.345 E0.01680
G1 X99.165 Y136.580 E0.23267
G1 X98.631 Y136.580 E0.01680
